X: 15123
T: Gie Me A Lass Wi' A Lump O' Land
R: jig
M: 6/8
K: Dmixolydian
~D2D ABc|BAG A2D|D>ED A2B|c2A GEC|
~D2D ABc|BAG A2B|c>dc cBA|G<Ec G<EC||
|:D>ED d2c|e2c d2B|c>dc cBA|G<Ec G<EC:|

